X:1
T:Somebody Bad Stole De Wedding Bell
T:Somebody bad stole De wedding bell
T:Dave Mann
T:Bob Hilliard
C:Dave Mann
Z:All Rights Reserved
L:1/8
M:4/4
K:C
V:1 treble 
%%MIDI program 4
V:1
"^Calypso" A E2 F G G3 | G E2 F G G2 G | G2 F2 D2 B,2 | G,2 z2 z4 ||"C" G c2 E G2 cG | %5
w: All day de peo- ple|look at de stee- ple but|they don't see de|bell|Some- bod- y bad stole de|
w: |||||
w: |||||
"G7" B A2 F- F4 | F B2 D F2 BF |"C" A G2 E- E4 | G c2 E G2 Bc |"F" d A2 A- A3 c | %10
w: wed- ding bell *|some- bod- y bad stole de|wed- ding bell *|some- bod- y bad stole de|wed- ding bell * now|
w: |||||
w: |||||
"G7" B"F" A2 A F2"G7" B,2 |"C" D2 C z z4 ||"C" G c2 G c2 G2 |"G7" F B2 F B4 | F B2 F B2 F2 | %15
w: no- bod- y can get|mar- ried|Who's got de ding dong|who's got de bell?|who's got de ding dong|
w: |||||
w: |||||
"C" E A2 E A4 | G c2 G c2 B2 |"F" A d2 A d2 c2 |"G7" B B2 A G2"Dm7" FF |"G7" E D2"C" C- C4 | %20
w: who's got de bell?|some- bod- y know but|no- bod- y tell cause|some- bod- y bad stole de|wed- ding bell *|
w: |||||
w: |||||
 z4 z G G2 |]"C" ccBB c G3 |"G7" B A2 F- FG G2 | B2 ^A2 B2 F2 |"C" A G2 E- EGGG | c B2 c- ccBc | %26
w: We got|sas- pa- ril- la so- da|on the ice * we got|shoes and rice and|free ad- vice * we got a|bri- dal suite * in hon- ey|
w: We got|ver- y fine de- tec- tive|Sher- lock John * and he's|sure to ques- tion|ev- ry- mon * soon in de|mar- ket place * where peo- ple|
w: We got|so- los by de is- lands|sing- ing band * we got|lots of sun and|lots of sand * we got a|lov- ers moon * we got a|
"F" d c2 A- A3 A |"G7" GG^FG- GA"Dm7"G=F |"G7" E D2"C" C- C z z2 |]"F" A d2 A d2 c2 | %30
w: moon ho- tel * but|what good is that * with- out a|wed- ding bell *|No- body- y tell cause|
w: buy and sell * he's|sure to ar- rest * de one who|sells the bell *||
w: wish- ing well * and|oh how I wish * we had a|wed- ding bell. *||
"G7" B B2 B G4- | G G2 G"Dm7" A2"G7" c2 |"C" c8- | c2 z2 z4 |] %34
w: some- bod- y bad|* stole de wed- ding|bell.||
w: ||||
w: ||||

